X:345
T:
R:polska
S:Allmänt bekant öfver ön; upptecknad efter »Florsen» i Burs.
N:Variant av 344, där den spelas i annan tonart.
O:Gotland, Burs
M:3/4
L:1/16
K:D
abag f2d'2a2f2|gfgb a4 f4|g2b2 f2a2 e2g2|1 d3f edcB A4:|2 fedc e4 d4::
ABcd e2A2f2A2|g2A2 f2A2 e2A2|ABcd ecAg fdAf|geAg fedf e4|agfg a2d'2a2f2|
gfgb a4 f4|g2b2 f2a2 e2g2|fedc e4 d4:|

